X:52
%%score 1 2
T:Paul's Wharf
M:6/8
L:1/8
K:D
V:1 clef-treble
V:2 clef-bass octave=-1
V:1
[Af]|d2e B2c & ^G3 =G3|[Fd]AF D2[Ae]|[Af]cd [Ge]Bc|[Fd]AF D2 :||:
V:2
D|E3 A3|D3-D2 c|d3 A3|D3-D2 :||:
V:1
F|FAF GB2|AdB ce2|fed eBc|dAF D2 :||
V:2
[DA]|A3 B3 & D6|F2G E3 & D6|[DA]3 [A,G]3|[DF]3-[DF]2 :||

